X:388
%%etbk:tnset id:111,pos:1,rep:3x,ant:
%%etbk:tnset id:258,pos:3,rep:2x,ant:
%%etbk:wsite http://www.thesession.org/tunes/display/481
%%etbk:pldat 2016-06-23T18:27,2016-06-22T16:20,2016-06-21T16:24,2016-05-05T14:50,2016-05-04T15:13,2016-05-02T18:46,2016-04-09T15:39,2016-04-07T16:45,2016-04-05T16:14,2016-03-30T16:54,2016-03-05T13:54,2016-02-27T15:00,2015-10-28T17:06,2015-10-25T14:58,2015-06-18T19:03,2014-10-29T17:15,2014-10-28T15:23,2014-10-23T18:31,2014-08-21T19:21,2014-08-18T19:20,2014-06-22T16:43,2014-06-11T16:52,2014-02-26T16:46,2014-02-05T16:02,2013-10-30T17:01,2013-10-29T16:18,2013-10-26T16:58,2013-10-18T15:30,2013-10-04T16:49,2013-09-27T16:50
T: Bill Sullivan's
Z: Piano Box Version by Martin Fleischmann
H: Created 2013-02-19 /  Last Modified 2013-02-19
M: 2/4
L: 1/8
R: polka
K: Amaj
|: "A"!5!a2 {e}a!3!f | !1!e!2!c !5!a>!3!f | !2!c!1!e !5!a>!3!f | !1!e!3!c (3cBA | !5!a2 {e}a!3!f | !1!e!2!c !5!a>!3!f | !1!e!3!c "E"!2!B>c| "A"B!1!A A2 :|
|: "A"!2!c!4!e e!2!c | "D"!1!d!3!f f!1!d | "A"!3!c!5!e e!1!A/B/ | "E"!3!cB B!1!A | "A"!2!c!4!e e!2!c | "D"!1!d!3!f f!1!d | "A"!3!c!5!e "E"!2!B>c | "A"B!1!A A2 :|


